assets/images/icons/ico-7.svg

<svg width="53" height="48" viewBox="0 0 53 48" fill="none" xmlns="http://www.w3.org/2000/svg">
<path d="M24.7544 2.24611C24.7131 1.6857 25.4522 1.35504 25.8813 1.66746C26.1524 1.83765 26.2436 2.17439 26.2314 2.47709C26.2302 4.71753 26.2314 6.95798 26.2314 9.19842C25.7379 9.19842 25.2443 9.19721 24.7508 9.19964C24.7483 6.88261 24.7398 4.56314 24.7544 2.24611Z" fill="white"/>
<path d="M20.0846 2.08515C20.5939 1.97574 21.1021 2.13134 21.5737 2.3149C22.1123 2.51549 22.6617 2.68203 23.2112 2.85101C23.2161 3.50624 23.2185 4.1627 23.21 4.81793C22.5596 4.99785 21.9287 5.23368 21.2929 5.4525C20.7787 5.63971 20.1709 5.68226 19.6773 5.41603C19.0719 5.08294 18.6501 4.39732 18.7133 3.6971C18.7716 2.94461 19.3612 2.27965 20.0846 2.08515Z" fill="white"/>
<path d="M29.8274 2.1607C30.4316 1.93094 31.1488 2.0525 31.6265 2.49379C32.4264 3.13079 32.4386 4.50326 31.646 5.15242C31.1452 5.64476 30.3586 5.70554 29.7228 5.47092C29.0567 5.24116 28.3978 4.99438 27.7182 4.80474C27.7122 4.16166 27.7219 3.51858 27.7109 2.8755C28.416 2.63602 29.1284 2.4172 29.8274 2.1607Z" fill="white"/>
<path d="M21.7352 11.3963C21.7388 11.068 22.0111 10.8504 22.2713 10.7021C24.3914 10.6997 26.5115 10.7082 28.6328 10.6973C28.9489 10.8286 29.2503 11.0924 29.2443 11.4643C29.254 12.4393 29.2479 13.4155 29.2479 14.3904C29.2759 14.8086 28.9221 15.2487 28.4857 15.2195C26.4592 15.2207 24.4315 15.2256 22.405 15.2171C21.9807 15.2268 21.6999 14.7867 21.7255 14.3965C21.7303 13.396 21.7109 12.3955 21.7352 11.3963Z" fill="white"/>
<path d="M23.2129 16.7353C24.7142 16.7255 26.2167 16.734 27.7181 16.7316C27.7108 17.8257 27.7339 18.9198 27.7059 20.0139C26.3845 20.009 25.0643 20.009 23.7441 20.0139C23.5605 20.0212 23.3806 19.9883 23.2031 19.9446C23.2262 18.8748 23.2104 17.805 23.2129 16.7353Z" fill="white"/>
<path d="M12.6649 20.0098C13.1597 20.0098 13.6557 20.0098 14.1504 20.011C14.1516 22.5019 14.1516 24.9927 14.1516 27.4848C13.8647 27.514 13.5718 27.576 13.2873 27.5018C13.0989 27.5261 12.9117 27.5492 12.7245 27.5699C12.6382 27.1918 12.6637 26.8028 12.6637 26.4187C12.6649 24.2828 12.6637 22.1469 12.6649 20.0098Z" fill="white"/>
<path d="M15.6641 21.5049C21.7059 21.5012 27.7476 21.5109 33.7882 21.5C34.1529 23.3004 35.2044 24.9731 36.7301 26.0101C29.7085 26.0247 22.6857 26.0137 15.6641 26.0149C15.6653 24.5112 15.6641 23.0086 15.6641 21.5049Z" fill="white"/>
<path d="M47.8926 22.3394C48.0105 22.0246 48.0324 21.655 48.2998 21.418V26.0156C47.2641 26.0131 46.2271 26.0204 45.1914 26.0107C46.4618 25.1257 47.4258 23.8152 47.8926 22.3394Z" fill="white"/>
<path d="M30.6104 32.1523C31.0529 32.6739 31.4237 33.2574 31.7434 33.8615C31.9014 34.1983 32.1251 34.546 32.0607 34.935C31.978 35.4857 31.5671 35.9938 31.0201 36.136C30.2664 36.3877 29.3668 35.8333 29.2476 35.0492C29.1966 34.8 29.2489 34.5472 29.2926 34.3028C29.6476 33.537 30.1314 32.844 30.6104 32.1523Z" fill="#48FDBC"/>
<path d="M44.3483 14.0543C49.703 18.8735 46.4902 24.2282 46.4902 24.2282C46.4902 24.2282 43.6737 25.5716 43.8129 25.8346C43.9709 26.1713 43.8773 43.6515 43.8129 44.0405C43.7302 44.5912 41.3342 45.2046 40.7872 45.3469C40.0335 45.5985 38.5778 44.8246 38.4587 44.0405C38.4076 43.7913 37.8795 26.079 37.9233 25.8346C32.3387 22.1031 33.5512 15.9603 37.9232 14.0538C38.4262 13.8345 38.4585 18.874 38.4585 18.874H43.8129C43.8129 18.874 43.8625 13.8509 44.3483 14.0543Z" fill="white"/>
<path d="M16.1094 35.0117C16.6309 35.7229 17.1427 36.4559 17.4782 37.2765C17.7931 38.1408 17.0017 39.1133 16.1021 39.0538C15.2366 39.0866 14.5315 38.2052 14.7175 37.3652C15.0518 36.5094 15.5964 35.7654 16.1094 35.0117Z" fill="#48FDBC"/>
<path d="M22.8298 42.8223C23.417 41.4364 24.3044 40.2098 25.1894 39.0039C26.0999 40.2585 27.0323 41.5264 27.6037 42.9803C27.8614 43.6137 27.679 44.337 27.3289 44.8974C26.7527 45.8711 25.4592 46.3477 24.3931 45.9586C23.1483 45.5842 22.2669 44.0537 22.8298 42.8223Z" fill="#48FDBC"/>
<path d="M23.4325 1.35845C23.8835 0.337307 25.1369 -0.19758 26.1872 0.175625C26.7962 0.338522 27.2411 0.81992 27.5426 1.35238C28.2769 1.09223 29.0136 0.839371 29.7636 0.629063C31.327 0.227898 33.058 1.2381 33.5662 2.75159C34.2202 4.48632 33.058 6.60885 31.2625 7.03676C30.0371 7.39416 28.8726 6.69395 27.7153 6.39247C27.7177 7.3273 27.7165 8.26092 27.7165 9.19576C28.2927 9.20184 28.9029 9.14835 29.4318 9.42308C30.1988 9.76225 30.7106 10.5646 30.7276 11.4009C30.7361 12.4598 30.7434 13.521 30.724 14.5799C30.6972 15.4697 30.1028 16.2964 29.264 16.5954C29.2385 17.7345 29.2445 18.8748 29.2603 20.0138C30.7203 20.0102 32.1803 20.0114 33.6391 20.0126C33.678 18.1089 34.3831 16.1967 35.7592 14.8546C36.6187 13.9429 37.7602 13.3861 38.8944 12.8986C38.898 14.7063 38.8956 16.514 38.8968 18.3217C40.2705 18.3265 41.6442 18.3289 43.0179 18.3277C43.0215 16.5188 43.0142 14.7112 43.0215 12.9023C44.6177 13.5271 46.1372 14.4996 47.0636 15.9779C47.878 17.1791 48.2177 18.6226 48.296 20.0548C48.2969 20.0719 52.5815 20.0891 52.5824 20.1062V21.4191C52.5824 21.4191 48.2885 21.4405 48.2711 21.4774C48.196 21.6367 47.9872 22.0849 47.8914 22.3406C47.4246 23.8164 46.4606 25.1269 45.1902 26.0119C46.226 26.0216 51.5467 26.0143 52.5824 26.0167V27.546C51.853 27.5448 46.8399 27.5484 46.1105 27.5412C45.5853 27.546 45.059 27.5472 44.5338 27.5448C44.5326 32.6445 44.535 37.7429 44.5338 42.8426C44.5301 43.4455 44.3794 44.0473 44.0974 44.5809C43.4409 45.7516 42.1013 46.4968 40.7604 46.4433C38.9625 46.3971 37.3882 44.756 37.3955 42.9617C37.3943 39.4509 37.3955 35.9401 37.3943 32.4281C37.8951 32.4281 38.396 32.4281 38.8968 32.4281C38.898 35.8963 38.8956 39.3634 38.898 42.8316C38.8591 43.7896 39.5751 44.7244 40.5282 44.8861C41.7074 45.1632 43.0167 44.1919 43.0154 42.9641C43.0215 37.146 43.0191 31.3279 43.0154 25.5098C43.9673 25.1257 44.8377 24.5203 45.4686 23.7058C46.6211 22.2664 47.0234 20.2728 46.553 18.4931C46.2697 17.2628 45.4893 16.2113 44.5459 15.3992C44.5192 16.8787 44.5411 18.3593 44.535 19.8388C42.1548 19.84 39.7745 19.8388 37.3943 19.8388C37.3906 18.3751 37.4016 16.9127 37.3882 15.4491C35.459 16.8313 34.6712 19.5458 35.4322 21.7753C35.9209 23.4736 37.2508 24.8777 38.8968 25.5074C38.8968 27.3053 38.8968 29.1021 38.8968 30.9C38.396 30.9 37.8951 30.9 37.3943 30.9C37.3979 29.7852 37.3882 28.6717 37.4003 27.557C35.6437 27.5278 33.8871 27.5582 32.1305 27.5412C31.3987 27.5484 30.6669 27.5484 29.9363 27.5412C29.574 27.5448 29.2117 27.5436 28.8495 27.5436C28.1201 27.5412 27.3895 27.5472 26.6601 27.5412C25.9708 27.5472 25.2815 27.5472 24.5935 27.5424C23.4593 27.5472 22.3238 27.5484 21.1896 27.5412C20.662 27.5472 20.1357 27.5472 19.6093 27.5412C18.294 27.5509 16.9786 27.5436 15.6621 27.5448C15.6621 28.0432 15.6621 28.5404 15.6633 29.0388C14.1595 29.0401 12.6558 29.0388 11.1508 29.0388C11.152 28.5404 11.152 28.0432 11.1508 27.5448C9.71996 27.5472 1.86475 27.5424 0.433927 27.5484C0.413261 27.0379 0.418123 26.5273 0.419339 26.0167C1.85502 26.0167 9.71632 26.0179 11.152 26.0167C11.1508 24.513 11.152 23.0092 11.152 21.5054C9.71632 21.5054 1.85502 21.5042 0.420555 21.5054C0.419339 21.007 0.419339 20.5098 0.419339 20.0114C1.85381 20.0126 9.71267 20.0114 11.1459 20.0126C11.1544 19.5021 11.152 18.9927 11.152 18.4821C12.6558 18.4821 14.1583 18.4821 15.6621 18.4821C15.6621 18.9915 15.6596 19.5021 15.6681 20.0126C17.6861 20.0114 19.7029 20.0114 21.7209 20.0126C21.7282 18.876 21.7342 17.7406 21.7172 16.6052C20.9088 16.3 20.2402 15.5135 20.2463 14.6236C20.2281 13.6536 20.2597 12.6835 20.2317 11.7146C20.205 11.1165 20.318 10.4953 20.7289 10.0358C21.3039 9.27721 22.3214 9.12525 23.2113 9.19819C23.2137 8.26335 23.2113 7.32852 23.2125 6.39368C22.5658 6.6125 21.9178 6.82402 21.265 7.02339C20.019 7.39295 18.6015 6.83496 17.8673 5.78221C17.2424 4.94949 17.0661 3.81772 17.3615 2.82574C17.8393 1.26242 19.6227 0.212094 21.2176 0.635141C21.964 0.850311 22.7007 1.0983 23.4325 1.35845ZM24.7527 2.24709C24.7381 4.56413 24.7466 6.88359 24.7491 9.20062C25.2426 9.19819 25.7362 9.19941 26.2297 9.19941C26.2297 6.95896 26.2285 4.71851 26.2297 2.47807C26.2419 2.17537 26.1507 1.83864 25.8796 1.66844C25.4505 1.35602 24.7114 1.68668 24.7527 2.24709ZM20.0822 2.08541C19.3589 2.27992 18.7693 2.94488 18.7109 3.69737C18.6477 4.39758 19.0695 5.08321 19.6749 5.4163C20.1685 5.68253 20.7763 5.63998 21.2905 5.45277C21.9263 5.23395 22.5572 4.99811 23.2076 4.8182C23.2161 4.16296 23.2137 3.50651 23.2088 2.85127C22.6594 2.6823 22.1099 2.51575 21.5713 2.31517C21.0997 2.13161 20.5915 1.976 20.0822 2.08541ZM29.8281 2.162C29.1291 2.4185 28.4167 2.63732 27.7116 2.8768C27.7225 3.51988 27.7128 4.16296 27.7189 4.80604C28.3984 4.99568 29.0573 5.24246 29.7235 5.47222C30.3593 5.70684 31.1458 5.64606 31.6467 5.15372C32.4393 4.50456 32.4271 3.13209 31.6272 2.49509C31.1495 2.05381 30.4322 1.93224 29.8281 2.162ZM21.7367 11.3985C21.7124 12.3978 21.7318 13.3983 21.727 14.3987C21.7014 14.789 21.9822 15.229 22.4065 15.2193C24.433 15.2278 26.4607 15.223 28.4872 15.2217C28.9236 15.2509 29.2774 14.8109 29.2494 14.3927C29.2494 13.4177 29.2555 12.4415 29.2458 11.4666C29.2518 11.0946 28.9504 10.8308 28.6343 10.6995C26.513 10.7105 24.3929 10.702 22.2728 10.7044C22.0126 10.8527 21.7403 11.0703 21.7367 11.3985ZM23.2113 16.7364C23.2088 17.8062 23.2246 18.876 23.2015 19.9458C23.379 19.9895 23.5589 20.0224 23.7425 20.0151C25.0627 20.0102 26.3829 20.0102 27.7043 20.0151C27.7323 18.921 27.7092 17.8269 27.7165 16.7328C26.2151 16.7352 24.7126 16.7267 23.2113 16.7364ZM12.6643 20.0114C12.6631 22.1485 12.6643 24.2844 12.6631 26.4203C12.6631 26.8045 12.6375 27.1935 12.7238 27.5715C12.911 27.5509 13.0983 27.5278 13.2867 27.5035C13.5711 27.5776 13.8641 27.5156 14.151 27.4865C14.151 24.9944 14.151 22.5035 14.1498 20.0126C13.655 20.0114 13.159 20.0114 12.6643 20.0114ZM15.6621 21.5054C15.6621 23.0092 15.6633 24.5118 15.6621 26.0155C22.6837 26.0143 29.7065 26.0252 36.7281 26.0106C35.2024 24.9737 34.1509 23.301 33.7862 21.5006C27.7456 21.5115 21.7039 21.5018 15.6621 21.5054Z" fill="black"/>
<path d="M30.5769 29.7832C30.6997 29.8671 30.8261 29.9534 30.9161 30.0762C31.7768 31.1484 32.6739 32.223 33.2355 33.4922C33.4604 34.0599 33.644 34.6859 33.5066 35.2998C33.3364 36.3368 32.5341 37.2327 31.5348 37.5439C30.6207 37.8794 29.5643 37.6436 28.8069 37.0564C27.956 36.372 27.4527 35.1698 27.8052 34.0988C28.3219 32.4333 29.5302 31.1314 30.5769 29.7832ZM30.6085 32.1513C30.1296 32.843 29.6457 33.5359 29.2908 34.3018C29.247 34.5461 29.1947 34.799 29.2458 35.0482C29.3649 35.8323 30.2645 36.3866 31.0182 36.135C31.5652 35.9928 31.9761 35.4846 32.0588 34.9339C32.1232 34.5449 31.8995 34.1972 31.7415 33.8605C31.4218 33.2563 31.051 32.6728 30.6085 32.1513Z" fill="black"/>
<path d="M13.168 37.6362C13.467 35.6534 14.9197 34.146 16.1074 32.6289C17.0009 33.6586 17.8713 34.7296 18.5193 35.9379C18.766 36.3901 18.9326 36.8861 19.0177 37.3943C19.1028 37.8951 18.9362 38.3887 18.8025 38.864C18.3333 39.8876 17.2428 40.6194 16.1013 40.5379C15.2407 40.589 14.3897 40.1659 13.8451 39.5095C13.4196 38.9783 13.2166 38.3072 13.168 37.6362ZM16.1111 35.0128C15.5981 35.7665 15.0534 36.5105 14.7191 37.3663C14.5331 38.2063 15.2382 39.0877 16.1038 39.0548C17.0034 39.1144 17.7947 38.1419 17.4799 37.2776C17.1444 36.457 16.6326 35.724 16.1111 35.0128Z" fill="black"/>
<path d="M21.3371 42.6598C22.0507 40.3415 23.7137 38.4937 25.1907 36.6289C26.472 38.236 27.8323 39.8236 28.6955 41.7091C29.0456 42.5443 29.3641 43.4767 29.1234 44.386C28.8243 45.9882 27.4458 47.3035 25.8411 47.554C25.4083 47.6208 24.9658 47.6208 24.5331 47.5552C23.3089 47.357 22.2136 46.5511 21.6289 45.4618C21.1998 44.6036 21.0016 43.5836 21.3371 42.6598ZM22.8299 42.8251C22.2671 44.0565 23.1484 45.587 24.3933 45.9615C25.4594 46.3505 26.7528 45.8739 27.3291 44.9002C27.6792 44.3398 27.8615 43.6165 27.6038 42.9831C27.0324 41.5292 26.1 40.2613 25.1895 39.0067C24.3045 40.2126 23.4171 41.4392 22.8299 42.8251Z" fill="black"/>
</svg>

<svg xmlns="http://www.w3.org/2000/svg" width="53" height="48" fill="none"><path fill="#fff" d="M24.754 2.246c-.04-.56.698-.891 1.127-.579.271.17.363.507.35.81v6.721q-.74 0-1.48.002c-.003-2.317-.011-4.637.003-6.954M20.085 2.085c.509-.11 1.017.046 1.489.23.538.2 1.088.367 1.637.536a96 96 0 0 1-.001 1.967c-.65.18-1.281.416-1.917.635-.514.187-1.122.23-1.616-.037-.605-.333-1.027-1.019-.964-1.719.059-.752.648-1.417 1.372-1.612M29.827 2.16c.605-.23 1.322-.107 1.8.334.8.637.812 2.01.019 2.658-.5.493-1.287.554-1.923.319-.666-.23-1.325-.477-2.005-.666-.006-.643.004-1.286-.007-1.93.705-.239 1.417-.458 2.116-.714M21.735 11.396c.004-.328.276-.546.536-.694 2.12-.002 4.24.006 6.362-.005.316.132.617.395.611.767.01.975.004 1.951.004 2.926.028.419-.326.859-.762.83-2.027 0-4.055.006-6.081-.003-.424.01-.705-.43-.68-.82.005-1.001-.014-2.001.01-3M23.213 16.735c1.501-.01 3.004-.001 4.505-.003-.007 1.094.016 2.188-.012 3.282a534 534 0 0 0-3.962 0 2 2 0 0 1-.54-.07c.022-1.07.006-2.139.009-3.209M12.665 20.01l1.485.001q.003 3.735.002 7.474c-.287.029-.58.091-.865.017q-.282.036-.562.068c-.087-.378-.061-.767-.061-1.151zM15.664 21.505c6.042-.004 12.084.006 18.124-.005.365 1.8 1.416 3.473 2.942 4.51-7.021.015-14.044.004-21.066.005zM47.893 22.34c.117-.315.14-.685.407-.922v4.598c-1.036-.003-2.073.004-3.109-.005a7.13 7.13 0 0 0 2.702-3.672"/><path fill="#48FDBC" d="M30.61 32.152a9.5 9.5 0 0 1 1.133 1.71c.158.336.382.684.318 1.073-.083.55-.494 1.059-1.04 1.201-.755.252-1.654-.303-1.773-1.087-.051-.249 0-.502.045-.746.355-.766.838-1.459 1.317-2.15"/><path fill="#fff" d="M44.348 14.054c5.355 4.82 2.142 10.174 2.142 10.174s-2.816 1.344-2.677 1.607c.158.336.064 17.816 0 18.206-.083.55-2.479 1.164-3.026 1.306-.754.252-2.21-.522-2.328-1.306-.051-.25-.58-17.962-.536-18.206-5.584-3.732-4.372-9.875 0-11.781.503-.22.535 4.82.535 4.82h5.355s.05-5.023.535-4.82"/><path fill="#48FDBC" d="M16.11 35.012c.52.71 1.033 1.444 1.368 2.264.315.865-.476 1.837-1.376 1.778-.865.033-1.57-.849-1.385-1.689.335-.856.88-1.6 1.392-2.353M22.83 42.822c.587-1.386 1.474-2.612 2.36-3.818.91 1.255 1.842 2.522 2.414 3.976.257.634.075 1.357-.275 1.917-.576.974-1.87 1.45-2.936 1.062-1.245-.375-2.126-1.905-1.563-3.137"/><path fill="#000" d="M23.433 1.358c.45-1.02 1.704-1.556 2.754-1.182.61.163 1.054.644 1.356 1.176.734-.26 1.47-.513 2.22-.723 1.564-.401 3.295.61 3.803 2.123.654 1.734-.508 3.857-2.304 4.285-1.225.357-2.39-.343-3.547-.645q.003 1.402.002 2.804c.576.006 1.186-.048 1.715.227.767.34 1.279 1.142 1.296 1.978.008 1.059.015 2.12-.004 3.179a2.24 2.24 0 0 1-1.46 2.015c-.026 1.14-.02 2.28-.004 3.419q2.19-.005 4.38-.001c.038-1.904.743-3.816 2.12-5.158.859-.912 2-1.469 3.134-1.956.004 1.807.002 3.615.003 5.423q2.06.008 4.12.006c.005-1.81-.003-3.617.005-5.426 1.596.625 3.115 1.598 4.042 3.076.814 1.201 1.154 2.645 1.232 4.077 0 .017 4.285.034 4.286.051v1.313s-4.294.021-4.31.058c-.076.16-.285.608-.38.864a7.13 7.13 0 0 1-2.702 3.67c1.036.01 6.357.003 7.392.006v1.529c-.729-.001-5.742.002-6.471-.005q-.79.007-1.577.004v15.298a3.8 3.8 0 0 1-.437 1.738c-.656 1.17-1.996 1.916-3.337 1.862-1.797-.046-3.372-1.687-3.364-3.481-.002-3.511 0-7.022-.002-10.534h1.503q0 5.201.001 10.404c-.039.958.677 1.892 1.63 2.054 1.18.277 2.489-.694 2.487-1.922.007-5.818.004-11.636 0-17.454.952-.384 1.823-.99 2.454-1.804 1.152-1.44 1.554-3.433 1.084-5.213-.283-1.23-1.064-2.282-2.007-3.094-.027 1.48-.005 2.96-.011 4.44h-7.14c-.004-1.464.007-2.926-.007-4.39-1.929 1.382-2.717 4.097-1.956 6.326.489 1.699 1.819 3.103 3.465 3.732V30.9h-1.503c.004-1.115-.006-2.228.006-3.343-1.756-.03-3.513.001-5.27-.016q-1.097.01-2.194 0-.543.005-1.087.003c-.729-.003-1.46.003-2.189-.003q-1.034.009-2.067.001-1.702.008-3.403 0-.791.007-1.58 0c-1.316.009-2.631.002-3.948.003l.001 1.494h-4.512v-1.494c-1.431.002-9.286-.003-10.717.003-.02-.51-.016-1.02-.015-1.531h10.733v-4.512H.421q-.003-.746-.002-1.494c1.435.002 9.294 0 10.727.002.008-.51.006-1.02.006-1.53h4.51c0 .508-.002 1.02.006 1.53q3.027-.003 6.053 0a159 159 0 0 0-.004-3.408c-.808-.305-1.477-1.091-1.47-1.981-.019-.97.013-1.94-.015-2.91-.027-.598.086-1.219.497-1.678.575-.759 1.592-.91 2.482-.838.003-.935 0-1.87.002-2.804q-.97.329-1.948.63c-1.246.369-2.663-.189-3.398-1.242-.625-.833-.8-1.964-.506-2.956.478-1.564 2.262-2.614 3.857-2.19.746.214 1.483.462 2.215.722m1.32.89c-.015 2.316-.006 4.636-.004 6.953q.74-.003 1.48-.002V2.48c.013-.304-.078-.64-.35-.81-.428-.313-1.168.018-1.126.578m-4.67-.163c-.724.195-1.314.86-1.372 1.612-.063.7.359 1.386.964 1.72.494.266 1.101.223 1.616.036.635-.22 1.266-.455 1.917-.635q.01-.983 0-1.967c-.549-.169-1.098-.335-1.637-.536-.471-.183-.98-.339-1.489-.23m9.745.077c-.699.256-1.411.475-2.116.715.01.643 0 1.286.007 1.929.68.19 1.338.436 2.005.666.635.235 1.422.174 1.923-.318.792-.65.78-2.022-.02-2.659-.477-.441-1.195-.563-1.799-.333m-8.091 9.237c-.025.999-.005 2-.01 3-.026.39.255.83.68.82 2.026.009 4.054.004 6.08.003.437.029.79-.411.762-.83 0-.974.007-1.95-.003-2.925.006-.372-.296-.636-.612-.768-2.121.011-4.241.003-6.361.005-.26.149-.533.366-.536.694m1.474 5.337c-.002 1.07.014 2.14-.01 3.21.178.043.358.076.541.07q1.98-.009 3.962 0c.028-1.095.005-2.19.012-3.283-1.5.002-3.003-.006-4.505.003m-10.547 3.275v6.41c0 .384-.027.773.06 1.15q.28-.03.563-.068c.284.075.577.013.864-.017l-.001-7.473q-.743-.002-1.486-.002m2.998 1.494v4.51c7.022 0 14.044.01 21.066-.004-1.526-1.037-2.577-2.71-2.942-4.51-6.04.01-12.082 0-18.124.004"/><path fill="#000" d="M30.577 29.783c.123.084.25.17.34.293.86 1.072 1.757 2.147 2.319 3.416.224.568.408 1.194.27 1.808-.17 1.037-.972 1.933-1.971 2.244-.914.335-1.97.1-2.728-.488-.851-.684-1.354-1.886-1.002-2.957.517-1.666 1.725-2.968 2.772-4.316m.031 2.368c-.478.692-.962 1.385-1.317 2.15-.044.245-.096.498-.045.747.119.784 1.019 1.339 1.772 1.087.547-.142.958-.65 1.04-1.201.065-.39-.159-.737-.317-1.073a9.5 9.5 0 0 0-1.133-1.71M13.168 37.636c.299-1.983 1.752-3.49 2.94-5.007.893 1.03 1.763 2.1 2.411 3.309.247.452.414.948.499 1.456.085.501-.082.995-.216 1.47-.469 1.024-1.56 1.755-2.7 1.674-.861.051-1.712-.372-2.257-1.028-.425-.532-.628-1.203-.677-1.874m2.943-2.623c-.513.754-1.058 1.498-1.392 2.353-.186.84.52 1.722 1.385 1.689.9.06 1.69-.913 1.376-1.777-.336-.821-.847-1.554-1.369-2.265M21.337 42.66c.714-2.318 2.377-4.166 3.854-6.031 1.281 1.607 2.641 3.195 3.505 5.08.35.835.668 1.768.427 2.677-.299 1.602-1.677 2.917-3.282 3.168a4.3 4.3 0 0 1-1.308.001c-1.224-.198-2.32-1.004-2.904-2.093-.43-.858-.627-1.878-.292-2.802m1.493.165c-.563 1.231.318 2.762 1.563 3.136 1.066.39 2.36-.087 2.936-1.06.35-.561.532-1.285.275-1.918-.572-1.454-1.504-2.722-2.415-3.976-.884 1.206-1.772 2.432-2.36 3.818"/></svg>
